X: 11078
T: RICH HART'S HORNPIPE
C: Bob McQuillen 7 Jan 99
B: Bob's Note Book 11 #78
R: hornpipe, reel
Z: 2020 John Chambers <jc:trillian.mit.edu>
M: C
L: 1/8
K: D
fe \
| d2AF Adfe | d2BG Bdgf | efge ceag | fafd Adfe |
| d2AF Adfe | d2BG Bdgf | efge ceag | f2d2 d2  :|
|: de \
| f2dB Adfd | B2GD GBed | cdBc Aceg | fafd ABAG |
| FDFA d2fe | d2BG BdcB | cdBc Acec | d2f2 d2  :|
%%begintext align
%% Over in the town of Nelson, not
%% quite a half hour from here, there's a Contra Dance every
%% Monday night that's been running in the region for the
%% last two hundred-or-so years. It's a sit-in situation
%% for musicians (leads take turns), and callers are welcome
%% to do the same. Rich is one of the regulars who comes and
%% calls, and he's one of the spark plugs of the dance. We're
%% always glad to see you, Rich!
%%endtext

%%sep 1 1 500

%%sep 1 1 500

